shared/images/iconfont/94-kb-iconfont-team-join-16.svg

<?xml version="1.0" encoding="UTF-8"?>
<svg width="16px" height="16px" viewBox="0 0 16 16" version="1.1" xmlns="http://www.w3.org/2000/svg" xmlns:xlink="http://www.w3.org/1999/xlink">
    <!-- Generator: sketchtool 57.1 (101010) - https://sketch.com -->
    <title>B484BAD7-1793-418E-A8DE-CD39D22B1D39</title>
    <desc>Created with sketchtool.</desc>
    <g id="Symbols" stroke="none" stroke-width="1" fill="none" fill-rule="evenodd">
        <g id="94-kb-iconfont-team-join-16">
            <g>
                <rect id="icon-area" opacity="0" x="0" y="0" width="16" height="16"></rect>
                <path d="M12,8.8817842e-16 C14.209139,8.8817842e-16 16,1.790861 16,4 L16,12 C16,14.209139 14.209139,16 12,16 L4,16 C1.790861,16 3.55271368e-15,14.209139 3.55271368e-15,12 L-0.000387077957,10.5070648 L0.0236779446,10.5188094 L0.0920249408,10.550625 L0.0920249408,10.550625 L0.11010139,10.5586661 L0.11010139,10.5586661 L0.024,10.518 L0.14,10.57 L0.223148983,10.6055264 L0.223148983,10.6055264 C0.259849064,10.6197971 0.296764969,10.6332601 0.334035039,10.6459578 L0.404918096,10.6690484 L0.404918096,10.6690484 L0.495509664,10.6955332 L0.495509664,10.6955332 L0.587012553,10.7189387 C0.592893857,10.7203348 0.597858643,10.7214987 0.602828508,10.7226494 C0.661321187,10.7362133 0.721446886,10.7480934 0.782231511,10.7580125 C0.796898093,10.7604037 0.811216826,10.7626241 0.825571057,10.7647353 C0.872965171,10.7717103 0.921001602,10.7775199 0.96939739,10.7820953 L1.01593583,10.786105 L1.04338236,10.7881054 L1.13913769,10.7929829 L1.13913769,10.7929829 L1.23571494,10.7946205 L2,10.794 L2,12 C2,13.1045695 2.8954305,14 4,14 L12,14 C13.1045695,14 14,13.1045695 14,12 L14,4 C14,2.8954305 13.1045695,2 12,2 L4,2 C2.8954305,2 2,2.8954305 2,4 L2,5.205 L1.23571494,5.20560682 C1.16494342,5.20560682 1.09478636,5.20823762 1.02533621,5.21340676 L1.044,5.212 L0.998748474,5.2155124 L0.998748474,5.2155124 C0.939108604,5.22052927 0.880416034,5.22735728 0.822306727,5.2359741 C0.809238753,5.23791049 0.795911482,5.2399844 0.782615728,5.24215214 C0.721446886,5.25213386 0.661321187,5.26401396 0.601921482,5.27778805 L0.595264146,5.27934013 C0.525648025,5.29587555 0.465067529,5.31248616 0.405345471,5.33104602 C0.381006935,5.338614 0.357233429,5.3463616 0.333602353,5.35441691 C0.298473384,5.36638509 0.263234169,5.37919751 0.228333666,5.39269047 C0.201827849,5.40294094 0.175770039,5.41347726 0.149910801,5.42439164 C0.10935479,5.44149904 0.0687668019,5.45978581 0.0287077095,5.47899922 L-0.000387077957,5.49316253 L3.55271368e-15,4 C3.55271368e-15,1.790861 1.790861,8.8817842e-16 4,8.8817842e-16 L12,8.8817842e-16 Z M8,4 C10.209139,4 12,5.790861 12,8 C12,10.209139 10.209139,12 8,12 C7.49470815,12 7.01129913,11.9063085 6.5661976,11.73535 L7.85144474,10.4956593 C7.90059512,10.4985396 7.95012701,10.5 8,10.5 C9.38071187,10.5 10.5,9.38071187 10.5,8 C10.5,6.61928813 9.38071187,5.5 8,5.5 L7.852,5.504 L6.5661976,4.26464996 C7.01129913,4.09369154 7.49470815,4 8,4 Z M4.39694109,5.04457726 C4.62981743,4.9520053 4.89541575,5.00625797 5.07333333,5.18274109 L5.07333333,5.18274109 L8,8.00274109 L5.07333333,10.8227411 C4.89541575,10.9992242 4.62981743,11.0534769 4.39694109,10.9609049 C4.16406475,10.868333 4.00819825,10.6465415 4,10.3960744 L4,10.3960744 L4,9.00274109 L1,9.00274109 C0.44771525,9.00274109 0,8.55502584 0,8.00274109 C0,7.45045634 0.44771525,7.00274109 1,7.00274109 L1,7.00274109 L4,7.00274109 L4,5.60940776 C4.00819825,5.3589407 4.16406475,5.13714923 4.39694109,5.04457726 Z M0.11010139,10.5586661 L0.161357676,10.5806369 L0.161357676,10.5806369 L0.14,10.57 L0.11010139,10.5586661 L0.11010139,10.5586661 Z M1.23571494,5.20560682 L1.044,5.212 L1.11659583,5.2080998 L1.11659583,5.2080998 L1.23571494,5.20560682 Z" id="Combined-Shape" fill="#000000"></path>
            </g>
        </g>
    </g>
</svg>

<svg xmlns="http://www.w3.org/2000/svg" width="16" height="16" viewBox="0 0 16 16">
    <path fill="#000" fill-rule="evenodd" d="M12 0a4 4 0 0 1 4 4v8a4 4 0 0 1-4 4H4a4 4 0 0 1-4-4v-1.493l.024.012.068.032.018.008-.086-.041.116.052.083.036.111.04.07.023.092.027.091.023a2.858 2.858 0 0 0 .382.063l.047.004.027.002.096.005.097.002.764-.001V12a2 2 0 0 0 2 2h8a2 2 0 0 0 2-2V4a2 2 0 0 0-2-2H4a2 2 0 0 0-2 2v1.205h-.764c-.071 0-.141.003-.21.008l.018-.001-.045.004a2.803 2.803 0 0 0-.397.062l-.007.001a2.834 2.834 0 0 0-.566.2l-.03.014L0 4a4 4 0 0 1 4-4h8zM8 4a4 4 0 1 1-1.434 7.735l1.285-1.24A2.5 2.5 0 1 0 8 5.5l-.148.005-1.286-1.24A3.99 3.99 0 0 1 8 4zM4.397 5.045a.63.63 0 0 1 .676.138L8 8.003l-2.927 2.82A.63.63 0 0 1 4 10.396V9.003H1a1 1 0 1 1 0-2h3V5.609a.63.63 0 0 1 .397-.564zM.11 10.559l.051.022-.021-.011-.03-.011zm1.126-5.353l-.192.006.073-.004.119-.002z"/>
</svg>
